X:3642
L:1/8
Q:1/4=140
M:2/4
K:G
 E |"G" D>E GA |"G" Bd B2 |"Am" AG/A/ BA |"Am" AG"D" EG |"G" D>E GA |"G" Bd B2 |"Am" AG/A/"D" BA | 
"G" G2"G" G :| d |"C" g2 e2 |"G" dB d2 |"C" G>A BA |"Am" AG"D" EG |"C" g2 e2 |"G" dB d2 | 
"C" G>A BA |"G" G2"G" G2 |"C" g2 e2 |"G" dB d2 |"C" G>A BA |"Am" AG"D" EG |"G" D>E GA |"G" Bd B2 | 
"Am" AG/A/"D" BA |"G" G2"G" G |]

